puzzle-check.svg

<svg fill="currentColor" viewBox="0 0 24 24"><path d="m23.5 17-5 5-3.5-3.5 1.5-1.5 2 2 3.5-3.5zm-3-6a2.5 2.5 0 0 1 2.5 2.5c0 .31-.06.61-.16.89C21.8 13.5 20.46 13 19 13c-3.31 0-6 2.69-6 6v.54c-.36-1.04-1.35-1.74-2.5-1.74-1.5 0-2.7 1.2-2.7 2.7V22H4c-1.1 0-2-.9-2-2v-3.8h1.5c1.5 0 2.7-1.2 2.7-2.7S5 10.8 3.5 10.8H2V7a2 2 0 0 1 2-2h4V3.5C8 2.12 9.12.998 10.5.998S13 2.12 13 3.5V5h4a2 2 0 0 1 2 2v4z"/></svg>

<svg  viewBox="0 0 24 24" fill="currentColor"><path  d="M23.5 17L18.5 22L15 18.5L16.5 17L18.5 19L22 15.5L23.5 17M20.5 11C21.88 11 23 12.12 23 13.5C23 13.81 22.94 14.11 22.84 14.39C21.8 13.5 20.46 13 19 13C15.69 13 13 15.69 13 19V19.54C12.64 18.5 11.65 17.8 10.5 17.8C9 17.8 7.8 19 7.8 20.5V22H4C2.9 22 2 21.1 2 20V16.2H3.5C5 16.2 6.2 15 6.2 13.5S5 10.8 3.5 10.8H2V7C2 5.89 2.9 5 4 5H8V3.5C8 2.12 9.12 .998 10.5 .998S13 2.12 13 3.5V5H17C18.1 5 19 5.89 19 7V11H20.5"/></svg>
